X: 1791
T: Ar Lan Y Mor
R: barndance
M: 4/4
K: Gmajor
z2 d2 d3 e|d8-|d2 B2 c3 d|B8-|B2 d2 d3 e|d8-|d2 B2 c3 d|B8-|
B2 d2 d3 e|d8-|d2 d2 c2 B2|G8-|G2 G2 G3 e|d8-|d2 BG A3 F|G8|
z2 d2 d3 d|d8-|d2 B2 c2 d2|cB- B6-|B2 d2 d3 d|d8-|d2 B2 c2 d2|cB- B6-|
B2 d2 d2 d2|d8-|d2 B2 A2 G2|E2 G6-|G2 G2 G2 e2|d8-|d2 B2 A2 B2|AG- G6|G8-|G8||

